hand-coin.svg

<svg fill="currentColor" viewBox="0 0 24 24"><path d="M16 12c2.76 0 5-2.24 5-5s-2.24-5-5-5-5 2.24-5 5 2.24 5 5 5m5.45 5.6c-.39-.4-.88-.6-1.45-.6h-7l-2.08-.73.33-.94L13 16h2.8c.35 0 .63-.14.86-.37s.34-.51.34-.82c0-.54-.26-.91-.78-1.12L8.95 11H7v9l7 2 8.03-3c.01-.53-.19-1-.58-1.4M5 11H.984v11H5z"/></svg>

<svg  viewBox="0 0 24 24" fill="currentColor"><path  d="M16 12C18.76 12 21 9.76 21 7S18.76 2 16 2 11 4.24 11 7 13.24 12 16 12M21.45 17.6C21.06 17.2 20.57 17 20 17H13L10.92 16.27L11.25 15.33L13 16H15.8C16.15 16 16.43 15.86 16.66 15.63S17 15.12 17 14.81C17 14.27 16.74 13.9 16.22 13.69L8.95 11H7V20L14 22L22.03 19C22.04 18.47 21.84 18 21.45 17.6M5 11H.984V22H5V11Z"/></svg>
